icons/1_Primary/Passmulticadeaux.svg

<svg xmlns="http://www.w3.org/2000/svg" width="1024" height="1024" fill="none">
   <g clip-path="url(#a)">
      <path fill="#8C72BD" d="M512 1024c282.77 0 512-229.23 512-512S794.77 0 512 0 0 229.23 0 512s229.23 512 512 512Z"/>
      <path fill="#fff" d="m604.79 306.56 23.47-28.16c4.55-5.43 3.81-13.49-1.61-18.04l-.59-.44c-5.43-4.55-13.49-3.81-18.04 1.61l-23.47 28.16c-4.55 5.43-3.81 13.49 1.61 18.04l.59.44c5.43 4.55 13.49 3.81 18.04-1.61Zm-69.81-32.27-1.61-37.99c-.29-6.75-6.01-12.03-12.76-11.73h-.88c-6.75.29-12.03 6.01-11.73 12.76l1.61 37.99c.29 6.75 6.01 12.03 12.76 11.73h.88c6.75-.15 12.03-5.87 11.73-12.76Zm93.28 108.09 33.44-2.64c7.04-.59 12.32-6.75 11.73-13.79l-.15-1.17c-.59-7.04-6.75-12.32-13.79-11.73l-33.44 2.64c-7.04.59-12.32 6.75-11.73 13.79l.15 1.17c.59 7.04 6.75 12.32 13.79 11.73Zm-67.91 369.45c-5.13-3.52-10.12-7.04-14.96-11-4.25-3.08-8.36-7.33-12.17-10.71-.44-.44-1.03-.59-1.61-.59-6.31-.29-12.61 0-18.92-.29-15.55-.29-31.24.59-46.93-.29-1.32-.15-2.49-1.17-2.49-2.49-.88-26.4 0-52.95-.44-79.35 0-1.91-.73-3.67-2.05-5.13-6.16-7.33-13.05-14.81-18.33-23.17-1.32-2.2-4.84-1.17-4.84 1.47 0 2.79 0 4.84.15 8.07v98.12c0 1.47-1.17 2.64-2.64 2.64-7.19 0-13.93 0-21.41-.29-1.47 0-2.49-1.17-2.49-2.64.44-63.36-.29-126.87.29-190.08 0-1.47 1.17-2.64 2.64-2.64 6.89 0 14.37 0 21.27.15 1.47 0 2.49 1.17 2.49 2.64 0 4.4.15 7.77.15 11.15 0 2.64 3.52 3.67 4.84 1.32 2.93-4.84 5.87-9.68 9.97-13.64 6.6-5.87 13.49-11.73 22-14.67 6.75-2.35 13.79-3.81 20.83-4.4 1.47-.15 2.64-1.47 2.35-2.93-.88-6.16-1.91-12.47-3.08-18.63-.59-2.49-1.03-5.13-2.64-7.04a2.006 2.006 0 0 0-.59-.44c-3.23-2.2-7.04-3.52-10.71-4.69-1.17-.29-1.91-1.47-1.91-2.64.29-9.39 7.19-17.75 6.89-27.28v-.29c-1.76-13.79-5.57-27.13-7.48-40.77v-.15c-1.91-11.59-4.55-22.15-5.87-33.59-1.47-12.76-3.52-25.52-4.84-38.28-.88-10.71-2.93-21.41-7.63-31.09-7.48-14.08-21.27-25.37-37.25-27.87-11.59-2.79-23.76.59-34.03 6.16-12.61 8.07-22 21.56-25.52 36.52-1.47 6.31-1.03 12.91-1.17 19.36 0 1.76-1.76 3.08-3.52 2.49-9.53-3.23-18.92-7.04-28.31-10.71-.1 0-.197-.05-.29-.15-9.68-5.13-21.12-6.75-31.83-4.4-9.53 2.49-17.45 9.39-22.73 17.6 0 .15-.15.15-.15.29-5.13 9.68-7.19 20.68-11.59 30.8 0 .1-.05.197-.15.29-3.23 11-7.63 21.56-10.41 32.56-.88 3.67.88 7.19 2.64 10.27 2.64 4.4 8.07 5.43 12.32 7.19 58.67 23.03 117.33 45.76 176 68.79 3.52 1.32 7.04 2.35 10.56 3.81 2.64 1.03 1.91 4.99-.88 5.13h-.15c-45.91-.15-91.96 0-137.87-.15-15.69.29-31.53-1.03-47.23-.29-4.84.29-9.53 3.08-11.73 7.33-.15.15-.15.44-.29.59-1.91 8.21-1.03 16.72-.88 24.93 0 57.2.15 114.4.15 171.6.29 7.63.15 15.69 3.96 22.73 6.31 14.37 21.56 24.64 37.4 23.91 85.51-.15 171.01.15 256.52.15 1.76 0 3.81 0 5.57-.29 2.35-.59 2.93-3.67 1.03-4.99l-.01-.01ZM405.62 309.04c13.64-5.87 30.07 3.08 34.17 16.87 0 .1.05.197.15.29 3.52 16.13 4.99 32.56 7.33 48.99.29 1.91-1.47 3.37-3.23 2.93-7.77-2.2-15.25-5.72-22.88-8.51-8.95-3.96-19.65-5.57-26.11-13.79-12.91-14.08-7.63-40.33 10.56-46.79l.01.01Zm16.57 92.99c-2.05 7.48-5.13 14.52-7.19 22 0 .1-.05.197-.15.29-3.52 8.36-5.43 17.45-9.24 25.67-.59 1.32-2.05 1.91-3.37 1.32-35.35-13.35-70.25-27.72-105.45-41.21-4.11-1.61-8.65-2.64-12.17-5.43-.73-.59-1.03-1.47-1.03-2.49.44-3.81 2.2-7.33 3.37-11 4.11-9.97 6.01-20.68 11.29-30.21 2.79-4.4 8.21-6.31 13.2-5.13.15 0 .29.15.44.15 34.76 14.08 69.96 27.43 104.87 41.07 1.32.59 2.64 1.17 3.81 1.91 1.47.73 1.91 1.91 1.61 3.08l.01-.02Zm32.85 66.59a2.626 2.626 0 0 1-1.199 1.477 2.626 2.626 0 0 1-1.881.283c-5.87-1.32-11-4.4-16.72-6.16-2.2-.88-6.16-2.2-4.69-5.13 4.11-14.81 9.39-29.63 14.23-44.15.15-.44.29-.88.44-1.32.29-.73.73-1.61 1.32-2.2.88-.73 2.2-.59 3.23-.29l19.36 6.75c1.32.59 2.05 1.76 1.76 3.08-4.4 16.13-10.85 31.68-15.84 47.67l-.01-.01Zm-68.79 75.97v110c-.59 23.91-.59 47.96 0 71.87.59 3.08-3.23 2.49-5.13 2.79h-84.04c-5.28.15-10.71-2.49-13.2-7.19-3.52-6.31-2.79-13.64-2.79-20.53v-162.8c.44-1.61-.88-5.28 1.76-5.43 31.68-.59 63.36 0 95.04-.29 1.91 0 3.96 0 6.01.15 1.47 0 2.49 1.17 2.49 2.64-.15 3.08-.15 5.87-.15 8.8l.01-.01Zm404.65 51.33c.59-16.13-2.79-31.83-5.13-47.67-3.67-16.28-6.16-32.71-9.83-48.99-2.93-15.11-4.11-32.27-15.84-43.56-11-12.32-29.63-17.31-45.17-11.44-5.13 1.17-9.09 4.99-14.23 6.01-4.69-4.4-10.41-7.33-16.28-9.83-12.32-4.84-26.69-2.05-37.55 5.28-4.55 3.67-8.65-1.76-12.61-3.67-12.03-7.48-26.99-5.43-40.04-1.91-3.08-9.09-3.08-18.77-5.87-27.87-2.93-15.99-6.45-31.97-9.24-48.11-2.93-13.2-11.73-24.93-23.61-31.24-8.36-5.13-18.63-4.84-28.01-3.96-17.6 2.79-30.95 18.19-35.05 35.05-3.81 17.89 2.93 35.64 5.87 53.09 1.76 12.32 5.13 24.2 7.04 36.52 5.72 29.33 11.29 58.67 17.31 88-5.87-1.61-11.44-3.96-17.45-4.69-13.05-3.08-27.28.88-37.25 9.83-18.63 16.28-21.12 47.08-6.16 66.73 18.33 23.17 37.11 45.91 55.44 68.93 6.6 7.77 12.47 15.99 19.36 23.47 19.21 23.61 46.2 40.77 75.83 48.11 29.33 7.92 60.87 4.11 88.44-7.92 40.63-18.04 71.43-55.59 83.6-98.12 4.55-16.87 7.04-34.47 6.45-52.07l-.02.03Zm-22.15 2.93c.29 28.16-7.92 56.32-23.47 79.79-14.52 20.97-34.61 38.87-58.81 47.52-33.15 13.35-72.31 9.39-102.52-9.39-23.32-13.79-39.01-36.52-55.73-57.2-14.08-16.87-27.28-34.17-41.36-51.04-4.55-5.72-9.97-11.29-12.03-18.48-3.52-11.73 3.23-26.25 15.4-29.63 7.77-2.49 16.87 0 22.29 6.16 12.17 14.23 23.32 29.33 35.49 43.71 1.03 1.47 2.49 2.2 4.11 2.79.88.29 2.05.15 2.79-.59 1.47-1.32 3.08-2.64 2.79-4.84-.88-11.73-4.55-23.03-6.45-34.47-1.91-12.47-5.28-24.64-7.19-37.11-1.76-10.71-4.84-21.12-6.16-31.83-5.87-26.69-10.27-53.53-16.13-80.23-2.2-15.69-6.75-30.95-8.36-46.64-.73-9.68 4.55-20.39 14.08-23.76 9.09-3.81 20.53-.29 25.96 7.92 3.81 4.99 4.25 11.29 5.57 17.16 3.08 13.93 4.99 28.16 8.51 41.95 1.61 11 3.96 22 6.31 32.85 1.61 13.05 5.72 25.81 7.19 38.87.88 4.11 1.17 9.39 5.28 11.73 1.76.59 2.79.29 4.11-.44 1.32-.73 2.2-2.05 2.2-3.67.44-7.04-2.79-13.93-1.03-20.97 2.2-8.36 8.65-15.99 17.31-17.75 9.68-2.49 20.39 3.37 24.35 12.47 4.11 9.68 4.25 20.39 7.33 30.21.15.73.59 1.17 1.17 1.61 1.91 1.32 4.4 1.61 6.31.44.88-.59 1.47-1.17 1.61-2.35 1.03-6.01-1.47-11.88-1.32-18.04-.29-11.59 9.09-22.88 20.83-23.76 10.12-.59 20.09 6.6 22.73 16.43 2.35 9.24 3.23 19.07 6.45 28.01 1.47 2.79 4.84 2.05 7.33.73.73-.44 1.32-1.17 1.32-1.91.59-3.52-.44-6.75-.88-10.56-.88-8.65 1.47-17.45 7.48-23.47 5.87-4.99 14.52-7.77 21.85-4.55 8.51 3.23 13.79 11.59 15.25 20.39 2.2 14.23 5.87 28.16 8.07 42.39 4.69 23.17 10.41 46.05 9.97 69.52v.03Z"/>
   </g>
   <defs>
      <clipPath id="a">
         <path fill="#fff" d="M0 0h1024v1024H0z"/>
      </clipPath>
   </defs>
</svg>

<svg width="1024" height="1024" viewBox="0 0 1024 1024" fill="none" xmlns="http://www.w3.org/2000/svg">
<g clip-path="url(#clip0_2_3087)">
<path d="M512 1024C794.77 1024 1024 794.77 1024 512C1024 229.23 794.77 0 512 0C229.23 0 0 229.23 0 512C0 794.77 229.23 1024 512 1024Z" fill="#8C72BD"/>
<path d="M604.79 306.56L628.26 278.4C632.81 272.97 632.07 264.91 626.65 260.36L626.06 259.92C620.63 255.37 612.57 256.11 608.02 261.53L584.55 289.69C580 295.12 580.74 303.18 586.16 307.73L586.75 308.17C592.18 312.72 600.24 311.98 604.79 306.56ZM534.98 274.29L533.37 236.3C533.08 229.55 527.36 224.27 520.61 224.57H519.73C512.98 224.86 507.7 230.58 508 237.33L509.61 275.32C509.9 282.07 515.62 287.35 522.37 287.05H523.25C530 286.9 535.28 281.18 534.98 274.29ZM628.26 382.38L661.7 379.74C668.74 379.15 674.02 372.99 673.43 365.95L673.28 364.78C672.69 357.74 666.53 352.46 659.49 353.05L626.05 355.69C619.01 356.28 613.73 362.44 614.32 369.48L614.47 370.65C615.06 377.69 621.22 382.97 628.26 382.38ZM560.35 751.83C555.22 748.31 550.23 744.79 545.39 740.83C541.14 737.75 537.03 733.5 533.22 730.12C532.78 729.68 532.19 729.53 531.61 729.53C525.3 729.24 519 729.53 512.69 729.24C497.14 728.95 481.45 729.83 465.76 728.95C464.44 728.8 463.27 727.78 463.27 726.46C462.39 700.06 463.27 673.51 462.83 647.11C462.83 645.2 462.1 643.44 460.78 641.98C454.62 634.65 447.73 627.17 442.45 618.81C441.13 616.61 437.61 617.64 437.61 620.28C437.61 623.07 437.61 625.12 437.76 628.35V726.47C437.76 727.94 436.59 729.11 435.12 729.11C427.93 729.11 421.19 729.11 413.71 728.82C412.24 728.82 411.22 727.65 411.22 726.18C411.66 662.82 410.93 599.31 411.51 536.1C411.51 534.63 412.68 533.46 414.15 533.46C421.04 533.46 428.52 533.46 435.42 533.61C436.89 533.61 437.91 534.78 437.91 536.25C437.91 540.65 438.06 544.02 438.06 547.4C438.06 550.04 441.58 551.07 442.9 548.72C445.83 543.88 448.77 539.04 452.87 535.08C459.47 529.21 466.36 523.35 474.87 520.41C481.62 518.06 488.66 516.6 495.7 516.01C497.17 515.86 498.34 514.54 498.05 513.08C497.17 506.92 496.14 500.61 494.97 494.45C494.38 491.96 493.94 489.32 492.33 487.41C492.162 487.228 491.962 487.079 491.74 486.97C488.51 484.77 484.7 483.45 481.03 482.28C479.86 481.99 479.12 480.81 479.12 479.64C479.41 470.25 486.31 461.89 486.01 452.36V452.07C484.25 438.28 480.44 424.94 478.53 411.3V411.15C476.62 399.56 473.98 389 472.66 377.56C471.19 364.8 469.14 352.04 467.82 339.28C466.94 328.57 464.89 317.87 460.19 308.19C452.71 294.11 438.92 282.82 422.94 280.32C411.35 277.53 399.18 280.91 388.91 286.48C376.3 294.55 366.91 308.04 363.39 323C361.92 329.31 362.36 335.91 362.22 342.36C362.22 344.12 360.46 345.44 358.7 344.85C349.17 341.62 339.78 337.81 330.39 334.14C330.29 334.14 330.193 334.09 330.1 333.99C320.42 328.86 308.98 327.24 298.27 329.59C288.74 332.08 280.82 338.98 275.54 347.19C275.54 347.34 275.39 347.34 275.39 347.48C270.26 357.16 268.2 368.16 263.8 378.28C263.8 378.38 263.75 378.477 263.65 378.57C260.42 389.57 256.02 400.13 253.24 411.13C252.36 414.8 254.12 418.32 255.88 421.4C258.52 425.8 263.95 426.83 268.2 428.59C326.87 451.62 385.53 474.35 444.2 497.38C447.72 498.7 451.24 499.73 454.76 501.19C457.4 502.22 456.67 506.18 453.88 506.32H453.73C407.82 506.17 361.77 506.32 315.86 506.17C300.17 506.46 284.33 505.14 268.63 505.88C263.79 506.17 259.1 508.96 256.9 513.21C256.75 513.36 256.75 513.65 256.61 513.8C254.7 522.01 255.58 530.52 255.73 538.73C255.73 595.93 255.88 653.13 255.88 710.33C256.17 717.96 256.03 726.02 259.84 733.06C266.15 747.43 281.4 757.7 297.24 756.97C382.75 756.82 468.25 757.12 553.76 757.12C555.52 757.12 557.57 757.12 559.33 756.83C561.68 756.24 562.26 753.16 560.36 751.84L560.35 751.83ZM405.62 309.04C419.26 303.17 435.69 312.12 439.79 325.91C439.79 326.01 439.84 326.107 439.94 326.2C443.46 342.33 444.93 358.76 447.27 375.19C447.56 377.1 445.8 378.56 444.04 378.12C436.27 375.92 428.79 372.4 421.16 369.61C412.21 365.65 401.51 364.04 395.05 355.82C382.14 341.74 387.42 315.49 405.61 309.03L405.62 309.04ZM422.19 402.03C420.14 409.51 417.06 416.55 415 424.03C415 424.13 414.95 424.227 414.85 424.32C411.33 432.68 409.42 441.77 405.61 449.99C405.02 451.31 403.56 451.9 402.24 451.31C366.89 437.96 331.99 423.59 296.79 410.1C292.68 408.49 288.14 407.46 284.62 404.67C283.89 404.08 283.59 403.2 283.59 402.18C284.03 398.37 285.79 394.85 286.96 391.18C291.07 381.21 292.97 370.5 298.25 360.97C301.04 356.57 306.46 354.66 311.45 355.84C311.6 355.84 311.74 355.99 311.89 355.99C346.65 370.07 381.85 383.42 416.76 397.06C418.08 397.65 419.4 398.23 420.57 398.97C422.04 399.7 422.48 400.88 422.18 402.05L422.19 402.03ZM455.04 468.62C454.839 469.245 454.411 469.772 453.841 470.097C453.272 470.423 452.6 470.524 451.96 470.38C446.09 469.06 440.96 465.98 435.24 464.22C433.04 463.34 429.08 462.02 430.55 459.09C434.66 444.28 439.94 429.46 444.78 414.94C444.93 414.5 445.07 414.06 445.22 413.62C445.51 412.89 445.95 412.01 446.54 411.42C447.42 410.69 448.74 410.83 449.77 411.13L469.13 417.88C470.45 418.47 471.18 419.64 470.89 420.96C466.49 437.09 460.04 452.64 455.05 468.63L455.04 468.62ZM386.25 544.59V654.59C385.66 678.5 385.66 702.55 386.25 726.46C386.84 729.54 383.02 728.95 381.12 729.25H297.08C291.8 729.4 286.37 726.76 283.88 722.06C280.36 715.75 281.09 708.42 281.09 701.53V538.73C281.53 537.12 280.21 533.45 282.85 533.3C314.53 532.71 346.21 533.3 377.89 533.01C379.8 533.01 381.85 533.01 383.9 533.16C385.37 533.16 386.39 534.33 386.39 535.8C386.24 538.88 386.24 541.67 386.24 544.6L386.25 544.59ZM790.9 595.92C791.49 579.79 788.11 564.09 785.77 548.25C782.1 531.97 779.61 515.54 775.94 499.26C773.01 484.15 771.83 466.99 760.1 455.7C749.1 443.38 730.47 438.39 714.93 444.26C709.8 445.43 705.84 449.25 700.7 450.27C696.01 445.87 690.29 442.94 684.42 440.44C672.1 435.6 657.73 438.39 646.87 445.72C642.32 449.39 638.22 443.96 634.26 442.05C622.23 434.57 607.27 436.62 594.22 440.14C591.14 431.05 591.14 421.37 588.35 412.27C585.42 396.28 581.9 380.3 579.11 364.16C576.18 350.96 567.38 339.23 555.5 332.92C547.14 327.79 536.87 328.08 527.49 328.96C509.89 331.75 496.54 347.15 492.44 364.01C488.63 381.9 495.37 399.65 498.31 417.1C500.07 429.42 503.44 441.3 505.35 453.62C511.07 482.95 516.64 512.29 522.66 541.62C516.79 540.01 511.22 537.66 505.21 536.93C492.16 533.85 477.93 537.81 467.96 546.76C449.33 563.04 446.84 593.84 461.8 613.49C480.13 636.66 498.91 659.4 517.24 682.42C523.84 690.19 529.71 698.41 536.6 705.89C555.81 729.5 582.8 746.66 612.43 754C641.76 761.92 673.3 758.11 700.87 746.08C741.5 728.04 772.3 690.49 784.47 647.96C789.02 631.09 791.51 613.49 790.92 595.89L790.9 595.92ZM768.75 598.85C769.04 627.01 760.83 655.17 745.28 678.64C730.76 699.61 710.67 717.51 686.47 726.16C653.32 739.51 614.16 735.55 583.95 716.77C560.63 702.98 544.94 680.25 528.22 659.57C514.14 642.7 500.94 625.4 486.86 608.53C482.31 602.81 476.89 597.24 474.83 590.05C471.31 578.32 478.06 563.8 490.23 560.42C498 557.93 507.1 560.42 512.52 566.58C524.69 580.81 535.84 595.91 548.01 610.29C549.04 611.76 550.5 612.49 552.12 613.08C553 613.37 554.17 613.23 554.91 612.49C556.38 611.17 557.99 609.85 557.7 607.65C556.82 595.92 553.15 584.62 551.25 573.18C549.34 560.71 545.97 548.54 544.06 536.07C542.3 525.36 539.22 514.95 537.9 504.24C532.03 477.55 527.63 450.71 521.77 424.01C519.57 408.32 515.02 393.06 513.41 377.37C512.68 367.69 517.96 356.98 527.49 353.61C536.58 349.8 548.02 353.32 553.45 361.53C557.26 366.52 557.7 372.82 559.02 378.69C562.1 392.62 564.01 406.85 567.53 420.64C569.14 431.64 571.49 442.64 573.84 453.49C575.45 466.54 579.56 479.3 581.03 492.36C581.91 496.47 582.2 501.75 586.31 504.09C588.07 504.68 589.1 504.38 590.42 503.65C591.74 502.92 592.62 501.6 592.62 499.98C593.06 492.94 589.83 486.05 591.59 479.01C593.79 470.65 600.24 463.02 608.9 461.26C618.58 458.77 629.29 464.63 633.25 473.73C637.36 483.41 637.5 494.12 640.58 503.94C640.73 504.67 641.17 505.11 641.75 505.55C643.66 506.87 646.15 507.16 648.06 505.99C648.94 505.4 649.53 504.82 649.67 503.64C650.7 497.63 648.2 491.76 648.35 485.6C648.06 474.01 657.44 462.72 669.18 461.84C679.3 461.25 689.27 468.44 691.91 478.27C694.26 487.51 695.14 497.34 698.36 506.28C699.83 509.07 703.2 508.33 705.69 507.01C706.42 506.57 707.01 505.84 707.01 505.1C707.6 501.58 706.57 498.35 706.13 494.54C705.25 485.89 707.6 477.09 713.61 471.07C719.48 466.08 728.13 463.3 735.46 466.52C743.97 469.75 749.25 478.11 750.71 486.91C752.91 501.14 756.58 515.07 758.78 529.3C763.47 552.47 769.19 575.35 768.75 598.82V598.85Z" fill="white"/>
</g>
<defs>
<clipPath id="clip0_2_3087">
<rect width="1024" height="1024" fill="white"/>
</clipPath>
</defs>
</svg>
